symbols/web/summarize/materialsymbolsoutlined/summarize_wght100fill1_48px.svg

<svg xmlns="http://www.w3.org/2000/svg" height="48" width="48"><path d="M11.3 39.4q-1.15 0-1.925-.775Q8.6 37.85 8.6 36.7V11.3q0-1.15.775-1.925Q10.15 8.6 11.3 8.6h19.65l8.45 8.45V36.7q0 1.15-.775 1.925-.775.775-1.925.775Zm18.85-21.55h8.15L30.15 9.7Zm-14.3-.65q.5 0 .925-.425.425-.425.425-.925 0-.55-.425-.95-.425-.4-.925-.4-.55 0-.95.4-.4.4-.4.95 0 .5.4.925.4.425.95.425Zm0 8.15q.5 0 .925-.4.425-.4.425-.95 0-.55-.425-.95-.425-.4-.925-.4-.55 0-.95.4-.4.4-.4.95 0 .55.4.95.4.4.95.4Zm0 8.15q.5 0 .925-.4.425-.4.425-.95 0-.5-.425-.925-.425-.425-.925-.425-.55 0-.95.425-.4.425-.4.925 0 .55.4.95.4.4.95.4Z"/></svg>

<svg xmlns="http://www.w3.org/2000/svg" height="48" width="48"><path d="M9.7 39.4Q9.25 39.4 8.925 39.075Q8.6 38.75 8.6 38.3V9.7Q8.6 9.25 8.925 8.925Q9.25 8.6 9.7 8.6H30.95L39.4 17.05V38.3Q39.4 38.75 39.075 39.075Q38.75 39.4 38.3 39.4ZM30.15 17.85H38.3L30.15 9.7ZM15.85 17.2Q16.35 17.2 16.775 16.775Q17.2 16.35 17.2 15.85Q17.2 15.3 16.775 14.9Q16.35 14.5 15.85 14.5Q15.3 14.5 14.9 14.9Q14.5 15.3 14.5 15.85Q14.5 16.35 14.9 16.775Q15.3 17.2 15.85 17.2ZM15.85 25.35Q16.35 25.35 16.775 24.95Q17.2 24.55 17.2 24Q17.2 23.45 16.775 23.05Q16.35 22.65 15.85 22.65Q15.3 22.65 14.9 23.05Q14.5 23.45 14.5 24Q14.5 24.55 14.9 24.95Q15.3 25.35 15.85 25.35ZM15.85 33.5Q16.35 33.5 16.775 33.1Q17.2 32.7 17.2 32.15Q17.2 31.65 16.775 31.225Q16.35 30.8 15.85 30.8Q15.3 30.8 14.9 31.225Q14.5 31.65 14.5 32.15Q14.5 32.7 14.9 33.1Q15.3 33.5 15.85 33.5Z"/></svg>
